X:108
T:Good Lord Scroope alias Hughie Graham
T:not so pretty as our own set
Z:Jack Campin - http://www.campin.me.uk
S:Blaikie MS (NLS MS.1578) p32, Blaikie #102
M:2/4
L:1/16
V:1 midi program 1 74
V:2 midi program 1 46 bass middle = d transpose -24
Q:1/4=66
K:E Minor
[V:1] B2cd  e2`dc|d2d2 e4  |B2cd  e2`dc|d2d2 e4 |
[V:2] g2ab  c'2ba|b2g2 c'4 |g2ab  c'2ba|b2g2 c'4|
%
[V:1] B2cd  e2`dc|d2d2 e2dc|d2cd  B2`E2|F2ED E4 |
[V:2] g2ab  c'2ba|b2g2 c'4 |b2a2  g2`c2|d4   A4 |
%
[V:1] d2d^c B2`E2|FEFA B2e2|d2d^c B2`E2|F2ED E4|]
[V:2] d4    g2`c2|d2f2 g2c2|B2G2  g2`c2|d4   A4|]
W:Transcription (c) Jack Campin 2009, no mirroring or republication without permission

